X: 625
T: Guanggunr kuqi
L: 1/8
M: 2/4
K: F
c2d c [I:setbarnb 1]| 
A3c | 
d f A c | 
G4 | 
c2d c | 
A2c2 | 
d c A c | 
G4 | 
G2c2 | 
c2d2 | 
c2G2 | 
A3G | 
F2A2 | 
G A F D | 
C4 | 
A3G | 
F3A | 
G3E | 
D4 | 
F F G F | 
D FC2 |]

@@@ Tune index: 9499
